Newaita-dark/.DP/16/teamviewer-indicator-away.svg

<svg xmlns="http://www.w3.org/2000/svg" xmlns:xlink="http://www.w3.org/1999/xlink" width="16px" height="16px" viewBox="0 0 16 16" version="1.1">
<g id="surface1">
<path style=" stroke:none;fill-rule:nonzero;fill:rgb(93.333334%,93.333334%,93.333334%);fill-opacity:1;" d="M 7.9375 2.109375 C 4.640625 2.109375 1.984375 4.765625 1.984375 8.0625 C 1.984375 11.363281 4.640625 14.015625 7.9375 14.015625 C 8.929688 14.015625 9.863281 13.777344 10.683594 13.351562 L 10.585938 13.351562 L 10.589844 13.351562 C 10.042969 13.359375 9.585938 12.910156 9.585938 12.363281 C 9.585938 11.816406 10.042969 11.367188 10.589844 11.375 L 10.585938 11.375 L 11.964844 11.375 C 11.890625 11.167969 11.882812 10.9375 11.957031 10.71875 C 12.089844 10.320312 12.460938 10.050781 12.882812 10.046875 C 13.097656 10.042969 13.308594 10.113281 13.484375 10.242188 C 13.746094 9.566406 13.890625 8.832031 13.890625 8.0625 C 13.890625 4.765625 11.238281 2.109375 7.9375 2.109375 Z M 9.585938 5.746094 C 9.761719 5.746094 9.933594 5.816406 10.058594 5.945312 L 11.710938 7.597656 C 11.96875 7.855469 11.96875 8.273438 11.710938 8.527344 L 10.058594 10.183594 C 9.890625 10.351562 9.648438 10.421875 9.417969 10.359375 C 9.1875 10.300781 9.007812 10.121094 8.949219 9.890625 C 8.890625 9.660156 8.957031 9.417969 9.125 9.25 L 9.660156 8.71875 C 9.636719 8.722656 9.613281 8.722656 9.59375 8.722656 L 6.21875 8.722656 L 6.75 9.25 C 6.921875 9.417969 6.988281 9.660156 6.925781 9.890625 C 6.867188 10.121094 6.6875 10.300781 6.457031 10.359375 C 6.230469 10.421875 5.984375 10.351562 5.820312 10.183594 L 4.164062 8.527344 C 3.90625 8.273438 3.90625 7.855469 4.164062 7.597656 L 5.820312 5.945312 C 5.9375 5.820312 6.101562 5.75 6.273438 5.746094 C 6.542969 5.738281 6.792969 5.894531 6.898438 6.144531 C 7.003906 6.394531 6.945312 6.6875 6.75 6.875 L 6.21875 7.40625 L 9.59375 7.40625 C 9.613281 7.40625 9.636719 7.40625 9.660156 7.40625 L 9.125 6.875 C 8.933594 6.6875 8.875 6.402344 8.976562 6.15625 C 9.074219 5.90625 9.316406 5.746094 9.585938 5.746094 Z M 10.257812 8.003906 C 10.261719 8.042969 10.261719 8.082031 10.257812 8.121094 L 10.316406 8.0625 Z M 12.890625 10.707031 C 12.75 10.707031 12.625 10.796875 12.582031 10.929688 C 12.535156 11.0625 12.582031 11.207031 12.691406 11.292969 C 12.691406 11.292969 12.695312 11.296875 12.695312 11.296875 L 12.859375 11.425781 C 12.980469 11.246094 13.097656 11.054688 13.199219 10.859375 L 13.105469 10.785156 C 13.101562 10.78125 13.101562 10.78125 13.101562 10.78125 C 13.042969 10.730469 12.964844 10.707031 12.890625 10.707031 Z M 10.578125 12.035156 C 10.390625 12.03125 10.246094 12.175781 10.246094 12.363281 C 10.246094 12.550781 10.390625 12.695312 10.578125 12.691406 C 10.582031 12.691406 10.582031 12.691406 10.585938 12.691406 L 11.691406 12.691406 C 11.9375 12.492188 12.167969 12.273438 12.378906 12.035156 L 10.585938 12.035156 C 10.582031 12.035156 10.582031 12.035156 10.578125 12.035156 Z M 10.578125 12.035156 "/>
<path style=" stroke:none;fill-rule:nonzero;fill:rgb(93.333334%,93.333334%,93.333334%);fill-opacity:1;" d="M 12.886719 10.375 C 12.605469 10.378906 12.359375 10.558594 12.269531 10.824219 C 12.179688 11.089844 12.265625 11.382812 12.488281 11.554688 L 12.675781 11.703125 L 10.585938 11.703125 C 10.347656 11.703125 10.125 11.824219 10.007812 12.03125 C 9.886719 12.238281 9.886719 12.488281 10.007812 12.695312 C 10.125 12.898438 10.347656 13.023438 10.585938 13.023438 L 12.675781 13.023438 L 12.488281 13.171875 C 12.300781 13.316406 12.207031 13.554688 12.242188 13.789062 C 12.273438 14.023438 12.433594 14.222656 12.65625 14.308594 C 12.878906 14.390625 13.128906 14.351562 13.3125 14.199219 L 14.964844 12.878906 C 15.121094 12.753906 15.210938 12.5625 15.210938 12.363281 C 15.210938 12.164062 15.121094 11.972656 14.964844 11.847656 L 13.3125 10.527344 C 13.191406 10.425781 13.039062 10.375 12.886719 10.375 Z M 12.886719 10.375 "/>
</g>
</svg>

<svg xmlns="http://www.w3.org/2000/svg" width="16pt" height="16pt" viewBox="0 0 16 16"><g fill="#bdbdbd"><path d="M7.938 2.11a5.942 5.942 0 0 0-5.954 5.953 5.94 5.94 0 0 0 5.954 5.953 5.94 5.94 0 0 0 2.746-.664h-.098.004a.995.995 0 0 1-1.004-.989.995.995 0 0 1 1.004-.988h-.004 1.379a.994.994 0 0 1-.008-.656.99.99 0 0 1 1.527-.477 6.02 6.02 0 0 0 .407-2.18A5.94 5.94 0 0 0 7.937 2.11zm1.648 3.636a.66.66 0 0 1 .473.2l1.652 1.652a.655.655 0 0 1 0 .93l-1.652 1.656a.66.66 0 1 1-.934-.934l.535-.531c-.023.004-.047.004-.066.004H6.219l.531.527c.172.168.238.41.176.64a.648.648 0 0 1-.469.47.654.654 0 0 1-.637-.176L4.164 8.527a.655.655 0 0 1 0-.93L5.82 5.946a.64.64 0 0 1 .453-.199.657.657 0 0 1 .477 1.129l-.531.531H9.66l-.535-.531a.657.657 0 0 1-.148-.719.65.65 0 0 1 .609-.41zm.672 2.258a.587.587 0 0 1 0 .117l.058-.059zm2.633 2.703c-.141 0-.266.09-.309.223a.325.325 0 0 0 .11.363l.003.004.164.129c.121-.18.239-.371.34-.567l-.094-.074-.003-.004a.324.324 0 0 0-.211-.074zm-2.313 1.328a.321.321 0 0 0-.332.328c0 .188.145.332.332.328h1.113c.246-.199.477-.418.688-.656h-1.801zm0 0"/><path d="M12.887 10.375a.66.66 0 0 0-.399 1.18l.188.148h-2.09a.66.66 0 1 0 0 1.32h2.09l-.188.149a.658.658 0 0 0-.246.617.653.653 0 0 0 .414.52.666.666 0 0 0 .656-.11l1.653-1.32a.661.661 0 0 0 0-1.031l-1.652-1.32a.662.662 0 0 0-.426-.153zm0 0"/></g></svg>
